X:143
T: EIN LAEMMLEIN TRANK VOM FRISCHEN
N: B0633
O: Europa, Mitteleuropa, Deutschland; Frankreich, Elsass
R: Kinder - Lied, Tier; Moral
M: 2/4
L: 1/16
K: F
FA | c2c2cfAc | B2G2z2
G2 | AcAFGBGE | F4z2
FA | c2c2cfAc | B2G2z2
G2 | AcAFGBGE | F4z2
G2 | A2c2fcBA | A2G2z2
FG | A2c2fcBA | A2G2z2
FA | c2c2cfAc | B2G2z2
B2 | AcAFGBGE | F4z2

